src/16/panel/keybase-update.svg

<svg xmlns="http://www.w3.org/2000/svg" width="16" height="16" version="1.1">
 <defs>
  <style id="current-color-scheme" type="text/css">
   .ColorScheme-Text { color:#dfdfdf; } .ColorScheme-Highlight { color:#4285f4; }
  </style>
 </defs>
 <path style="fill:currentColor" class="ColorScheme-Text" d="M 7 1 C 6.96924 1 6.659927 1.6290934 6.46875 2.0078125 C 6.1888835 2.562226 6.0555541 2.9898894 6.0097656 3.4824219 C 5.9984536 3.6041319 6.0002225 3.7242929 6.0078125 3.8417969 C 6.0030825 3.8947319 6.00049 3.946858 6 4 C 6 4.4587653 6.1601643 4.8774025 6.4199219 5.2148438 C 4.9615166 5.6130806 3.7224106 6.545039 2.9316406 7.7910156 C 2.7764446 7.9939532 2.6404076 8.204923 2.5410156 8.4316406 C 2.3848326 8.7879022 2.2676025 9.1563479 2.1796875 9.5546875 C 2.1211875 9.7910527 2.0725127 10.030858 2.0429688 10.277344 C 2.0403687 10.299284 2.0478637 10.303891 2.0585938 10.300781 C 2.0473136 10.395721 2.0322175 10.486503 2.0234375 10.585938 C 1.9953175 10.904695 1.9922619 11.035155 2.0136719 11.035156 L 6 7 L 5.0390625 10.011719 C 5.0442625 10.016919 4.9331779 10.059399 5.0664062 9.9980469 C 5.8849512 9.6211567 6.6352694 9.1115363 7.5371094 9.0039062 C 7.8481182 8.9667904 8.9257704 8.966026 9.25 9 C 9.57761 9.0343275 9.8914166 9.219586 10.214844 9.421875 A 4 4 0 0 1 12 9 A 4 4 0 0 1 13.205078 9.1855469 C 13.293396 8.938976 13.334471 8.6708621 13.302734 8.4257812 C 13.295934 8.3733493 13.282114 8.3243231 13.271484 8.2734375 C 13.292644 8.2210445 13.272983 8.1323305 13.189453 7.9863281 C 13.107263 7.7679272 12.985456 7.5499904 12.802734 7.3027344 C 11.917775 6.3302765 10.8369 5.5643702 9.5800781 5.2128906 C 9.8392798 4.8756471 10 4.4582227 10 4 C 9.999983 3.949163 9.9980506 3.8983453 9.9941406 3.8476562 C 9.9958406 3.7969863 10.000627 3.745172 9.9980469 3.6953125 C 9.9627559 3.010501 9.566885 2.5413464 8.96875 2.2324219 C 8.6520787 2.0688674 8.167645 1.9928182 7.8515625 1.9921875 C 7.3695269 1.9261045 7.2900031 1.2786987 7 1 z M 4.5527344 9.8867188 C 4.5527344 9.8867185 4.1387175 10.24991 2.7246094 11.738281 C 2.5567584 11.908014 2.3317251 11.999422 2.0957031 12.019531 A 6 6 0 0 0 3.5371094 15 L 8.5410156 15 A 4 4 0 0 1 8 13 A 4 4 0 0 1 9.2871094 10.066406 C 9.2577293 10.05454 9.1523473 9.9947561 9.1464844 9.9941406 C 9.0522454 9.9842606 7.698979 9.9909937 7.65625 9.9960938 C 7.0599863 10.067255 6.4051922 10.482424 5.4902344 10.904297 C 5.4878344 10.905497 5.486775 10.905103 5.484375 10.90625 C 5.481095 10.90785 5.47194 10.914416 5.46875 10.916016 C 5.418052 10.941056 5.411068 10.946749 5.3300781 10.974609 C 5.3098311 10.981609 5.2136109 11.007663 5.2128906 11.007812 C 5.2125305 11.007897 4.9533051 11.029297 4.953125 11.029297 L 4.625 10.957031 L 4.5390625 10.917969 L 5 10.03125 C 5 10.03125 4.7758519 9.9583791 4.5527344 9.8867188 z M 12 10 C 10.343249 10 9 11.35 9 13 C 9 14.65 10.343249 16 12 16 C 13.65675 16 15 14.65 15 13 C 15 11.35 13.65675 10 12 10 z M 12 11 A 2 2 0 0 1 14 13 L 13 13 A 1 1 0 0 0 12 12 L 12 11 z M 5 12 A 1 1 0 0 1 6 13 A 1 1 0 0 1 5 14 A 1 1 0 0 1 4 13 A 1 1 0 0 1 5 12 z M 10 13 L 11 13 A 1 1 0 0 0 12 14 L 12 15 A 2 2 0 0 1 10 13 z"/>
</svg>

<svg xmlns="http://www.w3.org/2000/svg" width="16" height="16"><defs><style id="current-color-scheme" type="text/css"></style></defs><path d="M7 1c-.03 0-.34.63-.531 1.008-.28.554-.413.982-.46 1.474-.01.122-.009.242-.001.36a1.984 1.984 0 0 0 .412 1.373A6.014 6.014 0 0 0 2.932 7.79a3.137 3.137 0 0 0-.391.64 5.971 5.971 0 0 0-.361 1.124 5.95 5.95 0 0 0-.137.722c-.003.022.005.027.016.024-.012.095-.027.186-.036.285-.028.319-.03.45-.01.45L6 7l-.96 3.012c.004.005-.107.047.026-.014.819-.377 1.57-.886 2.471-.994.311-.037 1.389-.038 1.713-.004.328.034.641.22.965.422A4 4 0 0 1 12 9a4 4 0 0 1 1.205.186c.088-.247.13-.515.098-.76-.007-.053-.02-.102-.032-.153.022-.052.002-.14-.082-.287a2.805 2.805 0 0 0-.386-.683c-.885-.973-1.966-1.739-3.223-2.09a1.983 1.983 0 0 0 .414-1.365c.002-.051.007-.103.004-.153-.035-.684-.431-1.154-1.03-1.463-.316-.163-.8-.24-1.116-.24C7.37 1.926 7.29 1.28 7 1zM4.553 9.887s-.414.363-1.828 1.851a.993.993 0 0 1-.63.282A6 6 0 0 0 3.538 15h5.004A4 4 0 0 1 8 13a4 4 0 0 1 1.287-2.934c-.03-.011-.135-.071-.14-.072a49.165 49.165 0 0 0-1.49.002c-.597.071-1.252.486-2.167.908l-.006.002-.015.01c-.05.025-.058.03-.139.059-.02.007-.116.033-.117.033l-.26.021-.328-.072-.086-.039.461-.887-.447-.144zM12 10c-1.657 0-3 1.35-3 3s1.343 3 3 3 3-1.35 3-3-1.343-3-3-3zm0 1a2 2 0 0 1 2 2h-1a1 1 0 0 0-1-1v-1zm-7 1a1 1 0 0 1 1 1 1 1 0 0 1-1 1 1 1 0 0 1-1-1 1 1 0 0 1 1-1zm5 1h1a1 1 0 0 0 1 1v1a2 2 0 0 1-2-2z" fill="currentColor" color="#bebebe"/></svg>
